src/assets/tokenLogoSvg/ICP.min.svg

<svg width='52' height='52' viewBox='0 0 52 52' fill='none' xmlns='http://www.w3.org/2000/svg'><g clip-path='url(#clip0_1662_5188)'><circle cx='26' cy='26' r='25.5' fill='white' stroke='#ffffff'/><path d='M34.9133 17.7666C32.9754 17.7666 30.8627 18.7392 28.6299 20.6549C27.5706 21.5627 26.6557 22.5353 25.9697 23.3134C25.9697 23.3134 25.9697 23.3134 25.9757 23.3193V23.3134C25.9757 23.3134 27.059 24.4688 28.2567 25.7066C28.9008 24.958 29.8277 23.9382 30.8928 23.0187C32.8791 21.3152 34.173 20.9556 34.9133 20.9556C37.7 20.9556 39.9629 23.1189 39.9629 25.7774C39.9629 28.4181 37.694 30.5814 34.9133 30.5991C34.7869 30.5991 34.6244 30.5814 34.4197 30.5402C35.2323 30.8821 36.105 31.1297 36.9356 31.1297C42.0393 31.1297 43.0384 27.8699 43.1046 27.6342C43.2551 27.0388 43.3333 26.414 43.3333 25.7715C43.3333 21.3623 39.5536 17.7666 34.9133 17.7666Z' fill='url(#paint0_linear_1662_5188)'/><path d='M17.0867 33.7996C19.0247 33.7996 21.1372 32.827 23.3701 30.9113C24.4294 30.0035 25.3443 29.0309 26.0303 28.2528C26.0303 28.2528 26.0303 28.2528 26.0242 28.2469V28.2528C26.0242 28.2528 24.941 27.0975 23.7432 25.8596C23.0993 26.6082 22.1724 27.628 21.1071 28.5475C19.121 30.2511 17.827 30.6106 17.0867 30.6106C14.3001 30.6047 12.0371 28.4414 12.0371 25.783C12.0371 23.1422 14.3061 20.9789 17.0867 20.9612C17.2131 20.9612 17.3756 20.9789 17.5802 21.0201C16.7677 20.6782 15.895 20.4307 15.0644 20.4307C9.96066 20.4307 8.96759 23.6904 8.89536 23.9203C8.7449 24.5215 8.66666 25.1405 8.66666 25.783C8.66666 30.2039 12.4463 33.7996 17.0867 33.7996Z' fill='url(#paint1_linear_1662_5188)'/><path d='M36.9245 31.0589C34.3124 30.9941 31.598 28.9781 31.0443 28.4771C29.6119 27.1803 26.3076 23.673 26.0489 23.3959C23.6294 20.7375 20.3492 17.7666 17.0872 17.7666H17.0811H17.0751C13.1149 17.7843 9.7866 20.4133 8.89584 23.9206C8.96205 23.6907 10.2681 20.3661 15.0589 20.484C17.671 20.5489 20.3974 22.5943 20.9571 23.0953C22.3896 24.3921 25.6938 27.8994 25.9526 28.1764C28.3721 30.829 31.6522 33.7999 34.9142 33.7999H34.9203H34.9263C38.8865 33.7822 42.2208 31.1532 43.1056 27.6459C43.0334 27.8758 41.7212 31.1709 36.9245 31.0589Z' fill='#29ABE2'/></g><defs><linearGradient id='paint0_linear_1662_5188' x1='30.5302' y1='18.8238' x2='41.7317' y2='30.6674' gradientUnits='userSpaceOnUse'><stop offset='0.21' stop-color='#F15A24'/><stop offset='0.6841' stop-color='#FBB03B'/></linearGradient><linearGradient id='paint1_linear_1662_5188' x1='21.4698' y1='32.7424' x2='10.2682' y2='20.8989' gradientUnits='userSpaceOnUse'><stop offset='0.21' stop-color='#ED1E79'/><stop offset='0.8929' stop-color='#522785'/></linearGradient><clipPath id='clip0_1662_5188'><rect width='52' height='52' fill='white'/></clipPath></defs></svg>

<svg width="52" height="52" fill="none" xmlns="http://www.w3.org/2000/svg"><g clip-path="url(#prefix__clip0_1662_5188)"><circle cx="26" cy="26" r="25.5" fill="#fff" stroke="#DBD9D6"/><path d="M34.913 17.767c-1.938 0-4.05.972-6.283 2.888-1.06.908-1.974 1.88-2.66 2.658l.006.006v-.006s1.083 1.156 2.28 2.394c.645-.749 1.572-1.769 2.637-2.688 1.986-1.704 3.28-2.063 4.02-2.063 2.787 0 5.05 2.163 5.05 4.821 0 2.641-2.269 4.804-5.05 4.822a2.57 2.57 0 01-.493-.059c.812.342 1.685.59 2.516.59 5.103 0 6.102-3.26 6.169-3.496.15-.595.228-1.22.228-1.863 0-4.409-3.78-8.004-8.42-8.004z" fill="url(#prefix__paint0_linear_1662_5188)"/><path d="M17.087 33.8c1.938 0 4.05-.973 6.283-2.889 1.06-.908 1.974-1.88 2.66-2.658l-.006-.006v.006s-1.083-1.155-2.28-2.393c-.645.748-1.572 1.768-2.637 2.688-1.986 1.703-3.28 2.063-4.02 2.063-2.787-.006-5.05-2.17-5.05-4.828 0-2.64 2.27-4.804 5.05-4.822.126 0 .289.018.493.06-.812-.343-1.685-.59-2.516-.59-5.103 0-6.096 3.26-6.169 3.49a7.633 7.633 0 00-.228 1.862c0 4.42 3.78 8.017 8.42 8.017z" fill="url(#prefix__paint1_linear_1662_5188)"/><path d="M36.925 31.059c-2.613-.065-5.327-2.08-5.88-2.582-1.433-1.297-4.737-4.804-4.996-5.081-2.42-2.659-5.7-5.63-8.962-5.63h-.012c-3.96.018-7.288 2.647-8.18 6.155.067-.23 1.373-3.555 6.164-3.437 2.612.065 5.338 2.11 5.898 2.611 1.433 1.297 4.737 4.804 4.996 5.081 2.42 2.653 5.7 5.624 8.961 5.624h.012c3.96-.018 7.295-2.647 8.18-6.154-.073.23-1.385 3.525-6.181 3.413z" fill="#29ABE2"/></g><defs><linearGradient id="prefix__paint0_linear_1662_5188" x1="30.53" y1="18.824" x2="41.732" y2="30.667" gradientUnits="userSpaceOnUse"><stop offset=".21" stop-color="#F15A24"/><stop offset=".684" stop-color="#FBB03B"/></linearGradient><linearGradient id="prefix__paint1_linear_1662_5188" x1="21.47" y1="32.742" x2="10.268" y2="20.899" gradientUnits="userSpaceOnUse"><stop offset=".21" stop-color="#ED1E79"/><stop offset=".893" stop-color="#522785"/></linearGradient><clipPath id="prefix__clip0_1662_5188"><path fill="#fff" d="M0 0h52v52H0z"/></clipPath></defs></svg>
